X:1
T: Graham's Reel
C:George M. Anderson
R:Reel
Q: 232
K:G
M:4/4
L:1/8
|:dc|B2 AG AG EG|DE GA BG AB|c2 AB cA ed|cB AG Fe dc|
B2 AG AG EG|DE GA BG AB|c2 AB ce dc|BG AF G2:|
|:ef|g2 eg fd Bd|e2 ce dB GB|c2 Ac BA GB|AG FG Ad ef|
g2 eg fd Bd|e2 ce dB GB|c2 Ac Bd ge|dc BA G2:|
"Extra bars for 40 bar dance"ef|g2 eg fd Bd|e2 ce dB GB|c2 Ac BA GB|AG FG Ae dc|
B2 AG AG EG|DE GA BG AB|c2 AB ce dc|BG AF G2||
